modules/themify-icons/icons/printer.svg

<?xml version="1.0" encoding="utf-8"?>
<!-- Generated by IcoMoon.io -->
<!DOCTYPE svg PUBLIC "-//W3C//DTD SVG 1.1//EN" "http://www.w3.org/Graphics/SVG/1.1/DTD/svg11.dtd">
<svg version="1.1" xmlns="http://www.w3.org/2000/svg" xmlns:xlink="http://www.w3.org/1999/xlink" width="17" height="17" viewBox="0 0 17 17">
<g>
</g>
	<path d="M17 6h-3.008v-1.818l-4.503-4.182h-6.497v6h-2.992v8h3v3.1h11v-3.1h3v-8zM9.992 1.832l2.335 2.168h-2.335v-2.168zM3.992 1h5v4h4v1h-9v-5zM13 16.1h-9v-5h9v5zM16 13h-2v-2.9h-11v2.9h-2v-6h15v6zM11.006 13h-6.006v-1h6.006v1zM9 15h-4v-1h4v1zM3 9h-1v-1h1v1zM5 9h-1v-1h1v1z" fill="#000000" />
</svg>

<svg xmlns="http://www.w3.org/2000/svg" width="17" height="17" viewBox="0 0 17 17"><path d="M17 6h-3.008V4.182L9.489 0H2.992v6H0v8h3v3.1h11V14h3V6zM9.992 1.832L12.327 4H9.992V1.832zm-6-.832h5v4h4v1h-9V1zM13 16.1H4v-5h9v5zm3-3.1h-2v-2.9H3V13H1V7h15v6zm-4.994 0H5v-1h6.006v1zM9 15H5v-1h4v1zM3 9H2V8h1v1zm2 0H4V8h1v1z"/></svg>
